X:842
T:Duncan Davidson
S:Misc
Z:Nigel Gatherer
M:4/4
L:1/8
K:D
D>FA>B A<F d2 | D>FA>B A<F E2  |
D>FA>B A<FA>g | f>de>f d<d d2 :|
f>e (3def g>fe>d | c<Ae>A c>de>g |
f>e (3def g>fe>d | c>de>g f<d d2 :|
<end>
<start>
